X: 629
T: The Belfast lasses
C: anon.
O: Ireland
B: Francis O'Neill: "The Dance Music of Ireland" (1907) no. 629
R: Reel
Z: Transcribed by Frank Nordberg - http://www.musicaviva.com
F: http://www.musicaviva.com/abc/tunes/ireland/oneill-1001/oneill-1001-062
9.abc
M: C|
L: 1/8
K: G
G2(BG) dGBG|EAAG FAFD|G2(BG) dGBG|[1EcAF G2G2:|[2egfa g2g2||gddc BdBG|
FAAG FAFD|gddc BdBG|EFAF G2G2|gddc BdBG|EAAG FAFD|gdec BdBG|egfa g2g2|]
W:
W:
W: From Musica Viva - http://www.musicaviva.com
W: the Internet center for free sheet music downloads.


